megadrive-japan/_inc/system.svg

<svg xmlns="http://www.w3.org/2000/svg"><g fill="#fff"><path d="m193.567 0v233.981h-157.32z"/><path d="m360.206 4.666h75.994v231.314h-75.994z"/><path d="m452.561 4.776c-.813-.024-1.718-.045-2.738-.061l-.466 79.245c.061.002.124-.002.185 0v-.246c1.292-.172 2.595-.258 3.922-.288l15.955-77.66c-6.225-.756-12.089-.839-16.858-.99zm29.26 2.202-22.402 76.797c1.995.275 3.951.712 5.831 1.294l36.798-73.02c-6.5-2.281-13.252-3.999-20.227-5.071zm32.527 10.225-44.005 69.858c1.47.711 2.896 1.529 4.251 2.423l56.53-62.199c-5.273-3.824-10.882-7.194-16.776-10.082zm27.351 18.769-63.245 56.448c1.511 1.312 2.927 2.752 4.209 4.292l74.417-43.328c-4.531-6.316-9.696-12.15-15.381-17.412zm21.15 26.304-77.434 38.173c.888 1.386 1.681 2.827 2.382 4.333l85.011-20.452c-2.554-7.752-5.904-15.134-9.959-22.054zm13.142 33.799-86.634 12.67c.889 2.674 1.486 5.491 1.746 8.398h87.435c-.206-7.208-1.079-14.251-2.547-21.068zm-84.888 28.009c-1.795 18.798-17.555 33.491-36.715 33.491-1.649 0-3.255-.118-4.846-.329v-1.601c-.061.001-.124-.002-.185 0v80.014c6.561-.047 9.947-.321 15.052-.321 61.87 0 112.246-49.483 114.129-111.254z"/><path d="m325.218 0v233.981h-157.321z"/><path d="m0 307.914 29.754-49.424c1.417-2.825 2.834-4.237 4.251-4.237h21.253v6.566l1.417-2.329c1.417-2.825 2.833-4.237 4.25-4.237h25.504v53.661h-17.003v-42.364l-25.504 42.364h-17.002l25.504-42.364h-8.502c-.944 0-1.888.471-2.833 1.413l-24.087 40.951zm109.099-21.182v9.886h39.671v11.296h-56.674v-35.303c0-.942.236-1.883.708-2.825l7.793-14.121c.473-.942 1.417-1.412 2.834-1.412h45.339v11.297h-34.005c-.944 0-1.653.471-2.125 1.413l-3.541 8.473h39.671l-5.668 11.296zm62.341 9.886h28.337v-9.886h-11.335l5.667-11.296h22.67v29.655c0 1.882-.944 2.823-2.834 2.823h-56.673c-1.89 0-2.834-.941-2.834-2.823v-32.48c0-.942.236-1.883.708-2.825l7.793-14.121c.472-.942 1.416-1.412 2.833-1.412h48.173v11.297h-36.838c-.944 0-1.652.471-2.125 1.413l-3.542 8.473zm121.85 11.296h-19.836l-7.793-11.296h-20.545l-5.667-10.239v21.535h-17.002v-53.661h32.588c1.417 0 2.834 1.412 4.251 4.237zm-35.492-22.594-12.682-18.357c-.944-.942-1.888-1.413-2.833-1.413h-2.834v19.77z"/><path d="m323.819 297.266h20.567c.979 0 1.714-.441 2.203-1.326l6.243-13.413.368-1.474-.368-1.474-6.243-13.265c-.489-.983-1.224-1.475-2.203-1.475h-20.567zm-17.629-44.218h49.214c1.468 0 2.693.983 3.673 2.948l11.384 23.583.368 1.474-.368 1.474-11.384 23.583c-.98 1.966-2.205 2.948-3.673 2.948h-49.214zm70.515 0h47.009c1.47 0 2.693.983 3.673 2.948l7.713 16.213.367 1.475-.367 1.473-11.386 13.266 11.753 20.635h-17.629l-16.894-28.005h8.815c.979 0 1.714-.246 2.203-.737l5.876-6.632-2.938-7.37c-.49-.983-1.224-1.475-2.204-1.475h-18.362v44.219h-17.629zm82.266 56.01h-17.628v-56.01h17.628zm23.505-37.585 17.629 25.793 17.628-25.793v-18.425h17.629v20.636c0 1.964-.245 3.439-.735 4.421l-19.832 30.953h-29.38l-19.832-30.953c-.491-.982-.735-2.457-.735-4.421v-20.636h17.628zm76.391 15.476v10.317h41.133v11.792h-58.761v-36.849c0-.982.244-1.965.734-2.947l8.079-14.74c.49-.983 1.47-1.474 2.939-1.474h47.009v11.791h-35.257c-.98 0-1.714.492-2.203 1.475l-3.673 8.843h41.133l-5.876 11.792z"/></g><path d="m126.42 359.756 4.084-6.127h22.208l5.233-8.36-5.233-6.573c-.702-.936-1.723-1.404-3.063-1.404h-8.934l4.084-6.126h12.252c1.362 0 2.511.596 3.447 1.786l2.872 3.639 3.892-6.319c1.362-2.126 3.403-3.191 6.127-3.191h8.168l-11.359 18.22 11.359 14.455h-12.253l-4.499-5.744-2.393 3.829c-.851 1.276-1.957 1.915-3.318 1.915z" fill="#ccc"/><path d="m189.726 339.334v-6.126h12.508l1.659-2.808c1.446-2.212 3.531-3.319 6.254-3.319h8.168l-3.829 6.127h9.956c1.361 0 2.552.723 3.573 2.17l7.786 10.848c.596.851.681 1.745.256 2.681l-6 8.679c-1.021 1.447-2.211 2.17-3.573 2.17h-16.337v-6.127h8.168c1.361 0 2.468-.51 3.318-1.532l2.171-3.701c.425-.595.425-1.191 0-1.786l-4.085-5.872c-.744-.936-1.893-1.404-3.446-1.404h-5.615l-12.764 20.422h-12.253l12.764-20.422zm34.716-12.253h8.168l8.552 11.998-3.446 6.382zm10.594 0h13.912l-6.51 10.211z" fill="#ccc"/><path d="m269.369 359.756v-32.675h12.252v8.169h20.421c1.362 0 2.511.724 3.447 2.17l6.764 10.083h-12.253l-2.552-4.084c-1.021-1.362-2.213-2.043-3.574-2.043h-12.253v18.38zm24.505-26.548-4.084-6.127h8.169l4.083 6.127zm10.211 0-4.085-6.127h8.169l4.084 6.127z" fill="#ccc"/><path d="m316.337 333.208v-6.127h42.886v6.127zm0 8.168v-6.126h42.886v6.126c-.001 1.362-.298 2.681-.894 3.957l-6.254 12.508c-.681 1.276-1.702 1.915-3.064 1.915h-26.547v-6.127h16.337c1.361 0 2.425-.68 3.191-2.042l4.978-10.211z" fill="#ccc"/><path d="m363.306 339.334v-6.126h29.484c1.446 0 2.552-.681 3.318-2.042l1.914-4.085h12.253l-4.084 8.169c-1.362 2.723-3.403 4.084-6.126 4.084h-8.169v20.422h-12.252v-20.422z" fill="#ccc"/><path d="m454.181 353.119-3.829 4.595c-.851 1.361-1.957 2.042-3.319 2.042h-32.673v-6.127h22.463c1.085 0 2.063-.68 2.936-2.042l1.148-1.946v-16.433h-26.547v-6.127h40.842v22.464c0 1.362-.34 2.552-1.021 3.574zm5.105-13.785 6.127-12.253h8.168l-6.126 12.253zm-2.042 0v-12.253h6.127z" fill="#ccc"/></svg>

<?xml version="1.0" encoding="utf-8"?>
<svg id="svg2" version="1.1" xmlns="http://www.w3.org/2000/svg">
  <path style="fill-opacity: 1; stroke: rgb(0, 0, 0); stroke-width: 0.781966px; stroke-linecap: butt; stroke-linejoin: miter; stroke-opacity: 0; display: inline; fill: rgb(255, 255, 255);" d="M 193.567 0 L 193.567 233.981 L 36.247 233.981 Z" id="path3038"/>
  <rect style="fill-opacity: 1; stroke: rgb(0, 0, 0); stroke-width: 5.22119; stroke-linecap: round; stroke-linejoin: miter; stroke-miterlimit: 4; stroke-opacity: 0; stroke-dasharray: none; stroke-dashoffset: 0; display: inline; fill: rgb(255, 255, 255);" id="rect3834" width="75.994" height="231.314" x="360.206" y="4.666"/>
  <path style="fill-opacity: 1; stroke: rgb(0, 0, 0); stroke-width: 5.15489; stroke-linecap: round; stroke-linejoin: miter; stroke-miterlimit: 4; stroke-opacity: 0; stroke-dasharray: none; stroke-dashoffset: 0; display: inline; fill: rgb(255, 255, 255);" d="M 452.561 4.776 C 451.748 4.752 450.843 4.731 449.823 4.715 L 449.357 83.96 C 449.418 83.962 449.481 83.958 449.542 83.96 L 449.542 83.714 C 450.834 83.542 452.137 83.456 453.464 83.426 L 469.419 5.766 C 463.194 5.01 457.33 4.927 452.561 4.776 Z M 481.821 6.978 L 459.419 83.775 C 461.414 84.05 463.37 84.487 465.25 85.069 L 502.048 12.049 C 495.548 9.768 488.796 8.05 481.821 6.978 Z M 514.348 17.203 L 470.343 87.061 C 471.813 87.772 473.239 88.59 474.594 89.484 L 531.124 27.285 C 525.851 23.461 520.242 20.091 514.348 17.203 Z M 541.699 35.972 L 478.454 92.42 C 479.965 93.732 481.381 95.172 482.663 96.712 L 557.08 53.384 C 552.549 47.068 547.384 41.234 541.699 35.972 Z M 562.849 62.276 L 485.415 100.449 C 486.303 101.835 487.096 103.276 487.797 104.782 L 572.808 84.33 C 570.254 76.578 566.904 69.196 562.849 62.276 Z M 575.991 96.075 L 489.357 108.745 C 490.246 111.419 490.843 114.236 491.103 117.143 L 578.538 117.143 C 578.332 109.935 577.459 102.892 575.991 96.075 Z M 491.103 124.084 C 489.308 142.882 473.548 157.575 454.388 157.575 C 452.739 157.575 451.133 157.457 449.542 157.246 L 449.542 155.645 C 449.481 155.646 449.418 155.643 449.357 155.645 L 449.357 235.659 C 455.918 235.612 459.304 235.338 464.409 235.338 C 526.279 235.338 576.655 185.855 578.538 124.084 Z" id="path3838"/>
  <path style="fill-opacity: 1; stroke: rgb(0, 0, 0); stroke-width: 0.781966px; stroke-linecap: butt; stroke-linejoin: miter; stroke-opacity: 0; display: inline; fill: rgb(255, 255, 255);" d="M 325.218 0 L 325.218 233.981 L 167.897 233.981 Z" id="path3038-4"/>
  <path style="font-size:69.46884918px;font-style:normal;font-weight:normal;fill:#ffffff;fill-opacity:1;stroke:none;display:inline;font-family:NiseMegaDrive" d="M 0 307.914 L 29.754 258.49 C 31.171 255.665 32.588 254.253 34.005 254.253 L 55.258 254.253 L 55.258 260.819 L 56.675 258.49 C 58.092 255.665 59.508 254.253 60.925 254.253 L 86.429 254.253 L 86.429 307.914 L 69.426 307.914 L 69.426 265.55 L 43.922 307.914 L 26.92 307.914 L 52.424 265.55 L 43.922 265.55 C 42.978 265.55 42.034 266.021 41.089 266.963 L 17.002 307.914 L 0 307.914 Z M 109.099 286.732 L 109.099 296.618 L 148.77 296.618 L 148.77 307.914 L 92.096 307.914 L 92.096 272.611 C 92.096 271.669 92.332 270.728 92.804 269.786 L 100.597 255.665 C 101.07 254.723 102.014 254.253 103.431 254.253 L 148.77 254.253 L 148.77 265.55 L 114.765 265.55 C 113.821 265.55 113.112 266.021 112.64 266.963 L 109.099 275.436 L 148.77 275.436 L 143.102 286.732 L 109.099 286.732 Z M 171.44 296.618 L 199.777 296.618 L 199.777 286.732 L 188.442 286.732 L 194.109 275.436 L 216.779 275.436 L 216.779 305.091 C 216.779 306.973 215.835 307.914 213.945 307.914 L 157.272 307.914 C 155.382 307.914 154.438 306.973 154.438 305.091 L 154.438 272.611 C 154.438 271.669 154.674 270.728 155.146 269.786 L 162.939 255.665 C 163.411 254.723 164.355 254.253 165.772 254.253 L 213.945 254.253 L 213.945 265.55 L 177.107 265.55 C 176.163 265.55 175.455 266.021 174.982 266.963 L 171.44 275.436 L 171.44 296.618 Z M 293.29 307.914 L 273.454 307.914 L 265.661 296.618 L 245.116 296.618 L 239.449 286.379 L 239.449 307.914 L 222.447 307.914 L 222.447 254.253 L 255.035 254.253 C 256.452 254.253 257.869 255.665 259.286 258.49 L 293.29 307.914 Z M 257.798 285.32 L 245.116 266.963 C 244.172 266.021 243.228 265.55 242.283 265.55 L 239.449 265.55 L 239.449 285.32 L 257.798 285.32 Z" id="text8337-2"/>
  <path style="font-size:72.2677002px;font-style:normal;font-weight:normal;fill:#ffffff;fill-opacity:1;stroke:none;display:inline;font-family:NiseMegaDrive" d="M 323.819 297.266 L 344.386 297.266 C 345.365 297.266 346.1 296.825 346.589 295.94 L 352.832 282.527 L 353.2 281.053 L 352.832 279.579 L 346.589 266.314 C 346.1 265.331 345.365 264.839 344.386 264.839 L 323.819 264.839 L 323.819 297.266 Z M 306.19 253.048 L 355.404 253.048 C 356.872 253.048 358.097 254.031 359.077 255.996 L 370.461 279.579 L 370.829 281.053 L 370.461 282.527 L 359.077 306.11 C 358.097 308.076 356.872 309.058 355.404 309.058 L 306.19 309.058 L 306.19 253.048 Z M 376.705 253.048 L 423.714 253.048 C 425.184 253.048 426.407 254.031 427.387 255.996 L 435.1 272.209 L 435.467 273.684 L 435.1 275.157 L 423.714 288.423 L 435.467 309.058 L 417.838 309.058 L 400.944 281.053 L 409.759 281.053 C 410.738 281.053 411.473 280.807 411.962 280.316 L 417.838 273.684 L 414.9 266.314 C 414.41 265.331 413.676 264.839 412.696 264.839 L 394.334 264.839 L 394.334 309.058 L 376.705 309.058 L 376.705 253.048 Z M 458.971 309.058 L 441.343 309.058 L 441.343 253.048 L 458.971 253.048 L 458.971 309.058 Z M 482.476 271.473 L 500.105 297.266 L 517.733 271.473 L 517.733 253.048 L 535.362 253.048 L 535.362 273.684 C 535.362 275.648 535.117 277.123 534.627 278.105 L 514.795 309.058 L 485.415 309.058 L 465.583 278.105 C 465.092 277.123 464.848 275.648 464.848 273.684 L 464.848 253.048 L 482.476 253.048 L 482.476 271.473 Z M 558.867 286.949 L 558.867 297.266 L 600 297.266 L 600 309.058 L 541.239 309.058 L 541.239 272.209 C 541.239 271.227 541.483 270.244 541.973 269.262 L 550.052 254.522 C 550.542 253.539 551.522 253.048 552.991 253.048 L 600 253.048 L 600 264.839 L 564.743 264.839 C 563.763 264.839 563.029 265.331 562.54 266.314 L 558.867 275.157 L 600 275.157 L 594.124 286.949 L 558.867 286.949 Z" id="text8339-0"/>
  <path d="M 126.42 359.756 L 130.504 353.629 L 152.712 353.629 L 157.945 345.269 L 152.712 338.696 C 152.01 337.76 150.989 337.292 149.649 337.292 L 140.715 337.292 L 144.799 331.166 L 157.051 331.166 C 158.413 331.166 159.562 331.762 160.498 332.952 L 163.37 336.591 L 167.262 330.272 C 168.624 328.146 170.665 327.081 173.389 327.081 L 181.557 327.081 L 170.198 345.301 L 181.557 359.756 L 169.304 359.756 L 164.805 354.012 L 162.412 357.841 C 161.561 359.117 160.455 359.756 159.094 359.756 Z" id="path3065" style="fill: rgb(204, 204, 204);"/>
  <path d="M 189.726 339.334 L 189.726 333.208 L 202.234 333.208 L 203.893 330.4 C 205.339 328.188 207.424 327.081 210.147 327.081 L 218.315 327.081 L 214.486 333.208 L 224.442 333.208 C 225.803 333.208 226.994 333.931 228.015 335.378 L 235.801 346.226 C 236.397 347.077 236.482 347.971 236.057 348.907 L 230.057 357.586 C 229.036 359.033 227.846 359.756 226.484 359.756 L 210.147 359.756 L 210.147 353.629 L 218.315 353.629 C 219.676 353.629 220.783 353.119 221.633 352.097 L 223.804 348.396 C 224.229 347.801 224.229 347.205 223.804 346.61 L 219.719 340.738 C 218.975 339.802 217.826 339.334 216.273 339.334 L 210.658 339.334 L 197.894 359.756 L 185.641 359.756 L 198.405 339.334 Z M 224.442 327.081 L 232.61 327.081 L 241.162 339.079 L 237.716 345.461 Z M 235.036 327.081 L 248.948 327.081 L 242.438 337.292 Z" id="path3067" style="fill: rgb(204, 204, 204);"/>
  <path d="M 269.369 359.756 L 269.369 327.081 L 281.621 327.081 L 281.621 335.25 L 302.042 335.25 C 303.404 335.25 304.553 335.974 305.489 337.42 L 312.253 347.503 L 300 347.503 L 297.448 343.419 C 296.427 342.057 295.235 341.376 293.874 341.376 L 281.621 341.376 L 281.621 359.756 Z M 293.874 333.208 L 289.79 327.081 L 297.959 327.081 L 302.042 333.208 Z M 304.085 333.208 L 300 327.081 L 308.169 327.081 L 312.253 333.208 Z" id="path3069" style="fill: rgb(204, 204, 204);"/>
  <path d="M 316.337 333.208 L 316.337 327.081 L 359.223 327.081 L 359.223 333.208 Z M 316.337 341.376 L 316.337 335.25 L 359.223 335.25 L 359.223 341.376 C 359.222 342.738 358.925 344.057 358.329 345.333 L 352.075 357.841 C 351.394 359.117 350.373 359.756 349.011 359.756 L 322.464 359.756 L 322.464 353.629 L 338.801 353.629 C 340.162 353.629 341.226 352.949 341.992 351.587 L 346.97 341.376 Z" id="path3071" style="fill: rgb(204, 204, 204);"/>
  <path d="M 363.306 339.334 L 363.306 333.208 L 392.79 333.208 C 394.236 333.208 395.342 332.527 396.108 331.166 L 398.022 327.081 L 410.275 327.081 L 406.191 335.25 C 404.829 337.973 402.788 339.334 400.065 339.334 L 391.896 339.334 L 391.896 359.756 L 379.644 359.756 L 379.644 339.334 Z" id="path3073" style="fill: rgb(204, 204, 204);"/>
  <path d="M 454.181 353.119 L 450.352 357.714 C 449.501 359.075 448.395 359.756 447.033 359.756 L 414.36 359.756 L 414.36 353.629 L 436.823 353.629 C 437.908 353.629 438.886 352.949 439.759 351.587 L 440.907 349.641 L 440.907 333.208 L 414.36 333.208 L 414.36 327.081 L 455.202 327.081 L 455.202 349.545 C 455.202 350.907 454.862 352.097 454.181 353.119 Z M 459.286 339.334 L 465.413 327.081 L 473.581 327.081 L 467.455 339.334 Z M 457.244 339.334 L 457.244 327.081 L 463.371 327.081 Z" id="path3075" style="fill: rgb(204, 204, 204);"/>
</svg>
